818989/p_qigc/tapcode-sce.spark.xd.com/src/engine-res/assets/DgPzYRa6DEVGIaapsQl-epbm-f181bb30.cube
# UE Default FilmToneMap LUT
# Generated by gen_ue_tonemap_lut.py
# FilmSlope=0.91 FilmToe=0.53 FilmShoulder=0.23
# FilmBlackClip=0.0 FilmWhiteClip=0.035
# PreDesat=0.96 PostDesat=0.93
# Log encoding: LinearRange=14.0 LinearGrey=0.18
TITLE "UE Default FilmToneMap"
LUT_3D_SIZE 8
DOMAIN_MIN 0.000000 0.000000 0.000000
DOMAIN_MAX 0.903226 0.903226 0.903226
0.000000 0.000000 0.000000
0.000786 0.000016 0.000016
0.009754 0.000201 0.000201
0.081624 0.001688 0.001688
0.406444 0.008572 0.008572
0.753576 0.018527 0.018527
0.908915 0.045483 0.045483
0.969219 0.203917 0.203917
0.000042 0.000832 0.000042
0.000864 0.000864 0.000061
0.009898 0.001100 0.000252
0.081883 0.002749 0.001755
0.406681 0.010108 0.008678
0.753737 0.021326 0.018727
0.909192 0.051158 0.045900
0.969642 0.212662 0.204567
0.000522 0.010322 0.000522
0.001458 0.010382 0.000547
0.010716 0.010716 0.000754
0.083087 0.012693 0.002300
0.407780 0.021120 0.009323
0.754517 0.035626 0.019649
0.910290 0.073663 0.047491
0.971118 0.243139 0.206837
0.004379 0.086179 0.004379
0.005658 0.086291 0.004417
0.015666 0.086795 0.004664
0.089336 0.089336 0.006317
0.413546 0.099583 0.013579
0.758897 0.119861 0.024572
0.915077 0.171996 0.054026
0.975959 0.343125 0.214458
0.022326 0.424393 0.022326
0.024542 0.424504 0.022394
0.036900 0.424984 0.022726
0.114710 0.427355 0.024589
0.436631 0.436631 0.032209
0.776076 0.453083 0.044195
0.930462 0.487751 0.075836
0.987284 0.576668 0.235499
0.052587 0.779301 0.052587
0.057055 0.779401 0.052724
0.075757 0.779813 0.053266
0.164853 0.781729 0.055641
0.476300 0.788428 0.064010
0.796403 0.796403 0.078579
0.946259 0.804700 0.117341
0.999330 0.822714 0.281320
0.155149 0.938202 0.155149
0.163140 0.938364 0.155397
0.191707 0.938942 0.156278
0.292957 0.940993 0.159385
0.551197 0.946238 0.168342
0.816271 0.951772 0.187017
0.955303 0.955303 0.237685
1.000000 0.958820 0.397486
0.517399 0.999686 0.517399
0.522061 0.999780 0.517545
0.537716 1.000000 0.518040
0.585566 1.000000 0.519635
0.698053 1.000000 0.524098
0.853559 1.000000 0.534780
0.963442 1.000000 0.561710
1.000000 1.000000 0.632436
0.000003 0.000003 0.000762
0.000792 0.000020 0.000792
0.009765 0.000205 0.001024
0.081645 0.001693 0.002661
0.406463 0.008581 0.009989
0.753589 0.018543 0.021127
0.908937 0.045516 0.050765
0.969252 0.203969 0.212064
0.000046 0.000838 0.000838
0.000870 0.000870 0.000870
0.009909 0.001107 0.001107
0.081903 0.002757 0.002757
0.406700 0.010118 0.010118
0.753750 0.021344 0.021344
0.909214 0.051192 0.051192
0.969676 0.212714 0.212714
0.000527 0.010333 0.001429
0.001466 0.010394 0.001466
0.010728 0.010728 0.001714
0.083109 0.012706 0.003398
0.407800 0.021135 0.010844
0.754530 0.035647 0.022324
0.910312 0.073700 0.052815
0.971151 0.243191 0.214984
0.004386 0.086201 0.005619
0.005668 0.086313 0.005668
0.015680 0.086817 0.005950
0.089359 0.089359 0.007722
0.413566 0.099608 0.015365
0.758911 0.119891 0.027447
0.915100 0.172037 0.059466
0.975993 0.343175 0.222603
0.022340 0.424415 0.024481
0.024557 0.424526 0.024557
0.036920 0.425006 0.024915
0.114737 0.427377 0.026869
0.436654 0.436654 0.034793
0.776092 0.453109 0.047709
0.930486 0.487786 0.081652
0.987317 0.576709 0.243631
0.052614 0.779320 0.056941
0.057083 0.779421 0.057083
0.075788 0.779833 0.057641
0.164889 0.781750 0.060074
0.476330 0.788449 0.068640
0.796426 0.796426 0.083838
0.946287 0.804729 0.124202
0.999363 0.822748 0.289326
0.155198 0.938234 0.162940
0.163189 0.938396 0.163189
0.191756 0.938974 0.164073
0.293006 0.941025 0.167193
0.551238 0.946270 0.176193
0.816305 0.951805 0.194992
0.955336 0.955336 0.245831
1.000000 0.958848 0.404441
0.517428 0.999704 0.521945
0.522090 0.999798 0.522090
0.537744 1.000000 0.522582
0.585592 1.000000 0.524165
0.698076 1.000000 0.528589
0.853578 1.000000 0.539135
0.963458 1.000000 0.565637
1.000000 1.000000 0.635277
0.000038 0.000038 0.009453
0.000837 0.000055 0.009509
0.009829 0.000243 0.009829
0.081739 0.001734 0.011767
0.406549 0.008630 0.020102
0.753650 0.018615 0.034332
0.909024 0.045642 0.071661
0.969370 0.204149 0.240460
0.000082 0.000884 0.009592
0.000917 0.000917 0.009650
0.009974 0.001154 0.009974
0.081998 0.002807 0.011924
0.406787 0.010175 0.020287
0.753811 0.021421 0.034596
0.909301 0.051321 0.072116
0.969793 0.212895 0.241108
0.000567 0.010399 0.010399
0.001514 0.010460 0.010460
0.010795 0.010795 0.010795
0.083206 0.012775 0.012775
0.407888 0.021209 0.021209
0.754593 0.035739 0.035739
0.910400 0.073837 0.073837
0.971269 0.243371 0.243371
0.004434 0.086300 0.015316
0.005723 0.086412 0.015389
0.015752 0.086917 0.015752
0.089461 0.089461 0.017807
0.413659 0.099714 0.026396
0.758977 0.120010 0.041419
0.915190 0.172189 0.080821
0.976110 0.343348 0.250964
0.022404 0.424509 0.036479
0.024627 0.424620 0.036575
0.037004 0.425101 0.037004
0.114848 0.427474 0.039204
0.436753 0.436753 0.047957
0.776165 0.453217 0.063493
0.930579 0.487915 0.104093
0.987432 0.576850 0.271877
0.052721 0.779401 0.075145
0.057192 0.779502 0.075301
0.075908 0.779914 0.075908
0.165026 0.781832 0.078510
0.476448 0.788533 0.087648
0.796517 0.796517 0.104671
0.946390 0.804838 0.149600
0.999472 0.822862 0.316281
0.155372 0.938348 0.190788
0.163364 0.938510 0.191039
0.191932 0.939089 0.191932
0.293179 0.941139 0.195083
0.551382 0.946384 0.204181
0.816425 0.951919 0.223250
0.955451 0.955451 0.274236
1.000000 0.958943 0.427849
0.517526 0.999766 0.537216
0.522187 0.999860 0.537357
0.537839 1.000000 0.537839
0.585680 1.000000 0.539384
0.698152 1.000000 0.543676
0.853641 1.000000 0.553777
0.963512 1.000000 0.578869
1.000000 1.000000 0.644904
0.000322 0.000322 0.079204
0.001155 0.000341 0.079302
0.010209 0.000532 0.079771
0.082225 0.002034 0.082225
0.407000 0.008953 0.092305
0.753991 0.018994 0.112068
0.909400 0.046156 0.162891
0.969757 0.204758 0.333788
0.000370 0.001203 0.079449
0.001237 0.001237 0.079549
0.010356 0.001477 0.080022
0.082486 0.003137 0.082486
0.407238 0.010522 0.092590
0.754153 0.021818 0.112417
0.909679 0.051844 0.163392
0.970180 0.213503 0.334415
0.000864 0.010783 0.080623
0.001841 0.010846 0.080727
0.011183 0.011183 0.081210
0.083699 0.013169 0.083699
0.408344 0.021616 0.093858
0.754938 0.036186 0.113856
0.910780 0.074391 0.165271
0.971655 0.243977 0.336603
0.004754 0.086797 0.086797
0.006068 0.086910 0.086910
0.016155 0.087417 0.087417
0.089965 0.089965 0.089965
0.414123 0.100226 0.100226
0.759331 0.120547 0.120547
0.915574 0.172790 0.172790
0.976494 0.343931 0.343931
0.022767 0.424974 0.112038
0.025009 0.425086 0.112171
0.037436 0.425568 0.112728
0.115371 0.427944 0.115371
0.437226 0.437226 0.125621
0.776528 0.453702 0.145891
0.930965 0.488430 0.197744
0.987807 0.577317 0.363888
0.053186 0.779777 0.161832
0.057670 0.779878 0.162012
0.076420 0.780292 0.162704
0.165598 0.782212 0.165598
0.476946 0.788915 0.175721
0.796909 0.796909 0.195794
0.946787 0.805254 0.247184
0.999830 0.823240 0.405137
0.155984 0.938752 0.289562
0.163979 0.938914 0.289810
0.192554 0.939493 0.290690
0.293790 0.941543 0.293790
0.551888 0.946786 0.302687
0.816839 0.952315 0.320839
0.955830 0.955830 0.367698
1.000000 0.959227 0.497920
0.517841 0.999957 0.583943
0.522500 1.000000 0.584076
0.538144 1.000000 0.584526
0.585963 1.000000 0.585963
0.698391 1.000000 0.589879
0.853837 1.000000 0.598703
0.963679 1.000000 0.619722
1.000000 1.000000 0.675162
0.001624 0.001624 0.396769
0.002566 0.001647 0.396853
0.011834 0.001850 0.397269
0.084212 0.003379 0.399523
0.408832 0.010344 0.408832
0.755349 0.020492 0.425417
0.910632 0.047868 0.460606
0.970687 0.206462 0.554872
0.001683 0.002619 0.396979
0.002656 0.002656 0.397065
0.011987 0.002904 0.397483
0.084478 0.004581 0.399746
0.409074 0.011996 0.409074
0.755515 0.023376 0.425711
0.910912 0.053591 0.461021
0.971110 0.215206 0.555391
0.002202 0.012421 0.398018
0.003278 0.012486 0.398107
0.012829 0.012829 0.398533
0.085701 0.014828 0.400817
0.410187 0.023292 0.410187
0.756307 0.037912 0.426953
0.912016 0.076237 0.462599
0.972583 0.245671 0.557200
0.006148 0.088806 0.403678
0.007547 0.088921 0.403775
0.017833 0.089432 0.404222
0.091988 0.091988 0.406550
0.415977 0.102250 0.415977
0.760711 0.122570 0.432922
0.916814 0.174790 0.469045
0.977413 0.345541 0.563199
0.024242 0.426803 0.426803
0.026549 0.426915 0.426915
0.039149 0.427400 0.427400
0.117393 0.429780 0.429780
0.439049 0.439049 0.439049
0.777885 0.455483 0.455483
0.932174 0.490086 0.490086
0.988688 0.578517 0.578517
0.054822 0.781099 0.466662
0.059347 0.781200 0.466812
0.078216 0.781616 0.467397
0.167598 0.783538 0.469912
0.478666 0.790231 0.478666
0.798194 0.798194 0.493684
0.947916 0.806452 0.524715
1.000000 0.824110 0.604021
0.157756 0.939795 0.542676
0.165759 0.939957 0.542881
0.194355 0.940536 0.543613
0.295553 0.942583 0.546193
0.553278 0.947811 0.553278
0.817896 0.953309 0.565148
0.956732 0.956732 0.589481
1.000000 0.959857 0.652159
0.518729 1.000000 0.694105
0.523380 1.000000 0.694220
0.538997 1.000000 0.694610
0.586739 1.000000 0.695834
0.699015 1.000000 0.699015
0.854318 1.000000 0.705333
0.964083 1.000000 0.718250
1.000000 1.000000 0.751629
0.003203 0.003203 0.739565
0.004477 0.003237 0.739601
0.014467 0.003471 0.739839
0.088085 0.005079 0.741449
0.412146 0.012188 0.748420
0.757028 0.022699 0.757028
0.911983 0.050921 0.766462
0.971779 0.210262 0.791386
0.003290 0.004544 0.739656
0.004590 0.004590 0.739693
0.014641 0.004862 0.739934
0.088367 0.006599 0.741551
0.412400 0.014115 0.748541
0.757202 0.025792 0.757202
0.912267 0.056764 0.766768
0.972201 0.219004 0.791828
0.003884 0.015097 0.740255
0.005273 0.015170 0.740296
0.015533 0.015533 0.740545
0.089629 0.017577 0.742184
0.413541 0.026098 0.749219
0.758020 0.040903 0.758020
0.913387 0.079755 0.767961
0.973672 0.249440 0.793369
0.008005 0.092756 0.744322
0.009682 0.092877 0.744370
0.020647 0.093403 0.744640
0.095988 0.095988 0.746328
0.419369 0.106252 0.753434
0.762467 0.126582 0.762467
0.918205 0.178841 0.773036
0.978485 0.349029 0.798426
0.026371 0.430108 0.761726
0.028896 0.430224 0.761790
0.042089 0.430719 0.762101
0.121395 0.433112 0.763854
0.442340 0.442340 0.770861
0.779577 0.458652 0.779577
0.933490 0.492961 0.789213
0.989681 0.580622 0.810471
0.057559 0.782702 0.782702
0.062224 0.782806 0.782806
0.081501 0.783229 0.783229
0.171581 0.785163 0.785163
0.481674 0.791826 0.791826
0.799728 0.799728 0.799728
0.949101 0.807876 0.807876
1.000000 0.825244 0.825244
0.161449 0.940932 0.804151
0.169483 0.941094 0.804321
0.198150 0.941674 0.804927
0.299207 0.943716 0.807063
0.555651 0.948912 0.812587
0.819178 0.954368 0.819178
0.957717 0.957717 0.826380
1.000000 0.960648 0.841481
0.520894 1.000000 0.847113
0.525517 1.000000 0.847212
0.541041 1.000000 0.847545
0.588516 1.000000 0.848574
0.700274 1.000000 0.851081
0.855103 1.000000 0.855103
0.964682 1.000000 0.860426
1.000000 1.000000 0.871451
0.005448 0.005448 0.892371
0.007639 0.005513 0.892417
0.019930 0.005835 0.892671
0.097605 0.007666 0.894256
0.419504 0.015187 0.900815
0.758856 0.026898 0.908021
0.913004 0.058197 0.913004
0.972800 0.220752 0.923715
0.005610 0.007747 0.892485
0.007821 0.007821 0.892532
0.020164 0.008172 0.892789
0.097937 0.010103 0.894381
0.419794 0.017951 0.900955
0.759062 0.030660 0.908205
0.913308 0.064434 0.913308
0.973222 0.229481 0.924139
0.006419 0.020696 0.893123
0.008697 0.020793 0.893173
0.021223 0.021223 0.893436
0.099328 0.023423 0.895047
0.421029 0.032154 0.901660
0.759971 0.047659 0.909037
0.914482 0.088556 0.914482
0.974687 0.259796 0.925611
0.011066 0.102539 0.897121
0.013573 0.102679 0.897177
0.026717 0.103255 0.897459
0.105940 0.105940 0.899115
0.427000 0.116233 0.905789
0.764575 0.136682 0.913374
0.919381 0.189350 0.919381
0.979450 0.358382 0.930402
0.030281 0.437478 0.913465
0.033500 0.437606 0.913534
0.048624 0.438134 0.913852
0.131401 0.440579 0.915564
0.449691 0.449691 0.922130
0.781524 0.465692 0.929394
0.934461 0.499311 0.934461
0.990413 0.585200 0.941459
0.063646 0.784458 0.930930
0.068774 0.784571 0.931035
0.089392 0.785020 0.931454
0.181727 0.786998 0.933327
0.488291 0.793585 0.939548
0.801368 0.801368 0.946062
0.949828 0.809435 0.949828
1.000000 0.826607 0.953482
0.171320 0.941782 0.941782
0.179449 0.941946 0.941946
0.208329 0.942530 0.942530
0.308782 0.944560 0.944560
0.560795 0.949666 0.949666
0.820626 0.955042 0.955042
0.958358 0.958358 0.958358
1.000000 0.961232 0.961232
0.526677 1.000000 0.955738
0.531203 1.000000 0.955829
0.546408 1.000000 0.956138
0.592971 1.000000 0.957084
0.702951 1.000000 0.959331
0.856171 1.000000 0.962542
0.965196 1.000000 0.965196
1.000000 1.000000 0.967708
0.018844 0.018844 0.944966
0.023252 0.018981 0.945057
0.041785 0.019522 0.945437
0.130596 0.021903 0.947250
0.442514 0.030326 0.953619
0.763522 0.045113 0.960474
0.914877 0.085034 0.965310
0.974705 0.255579 0.974705
0.019183 0.023462 0.945191
0.023604 0.023604 0.945283
0.042173 0.024164 0.945665
0.131048 0.026609 0.947482
0.442898 0.035245 0.953860
0.763817 0.050712 0.960745
0.915234 0.092372 0.965665
0.975121 0.264179 0.975121
0.020532 0.042918 0.946139
0.024996 0.043076 0.946232
0.043691 0.043691 0.946619
0.132789 0.046322 0.948449
0.444390 0.055570 0.954852
0.764978 0.073000 0.961824
0.916558 0.119593 0.966980
0.976521 0.293153 0.976521
0.026502 0.136228 0.950676
0.031114 0.136414 0.950773
0.050238 0.137127 0.951173
0.140082 0.140082 0.953033
0.450748 0.150355 0.959466
0.770005 0.170988 0.966564
0.921650 0.224385 0.972044
0.981122 0.388392 0.981122
0.047672 0.460377 0.966444
0.052762 0.460539 0.966549
0.073271 0.461159 0.966971
0.165441 0.463739 0.968857
0.472438 0.472438 0.975146
0.786313 0.487424 0.981874
0.935974 0.518737 0.986269
0.991303 0.599010 0.991303
0.086930 0.788724 0.982782
0.093361 0.788863 0.982912
0.117721 0.789386 0.983403
0.215766 0.791474 0.985378
0.508550 0.797771 0.991281
0.805177 0.805177 0.997320
0.950571 0.813024 1.000000
1.000000 0.829712 1.000000
0.204831 0.943033 0.992469
0.213156 0.943202 0.992636
0.242363 0.943792 0.993223
0.340073 0.945767 0.995187
0.576376 0.950556 0.999938
0.823921 0.955683 1.000000
0.958937 0.958937 1.000000
1.000000 0.961781 1.000000
0.544705 1.000000 1.000000
0.548914 1.000000 1.000000
0.563079 1.000000 1.000000
0.606652 1.000000 1.000000
0.710743 1.000000 1.000000
0.858542 1.000000 1.000000
0.965702 1.000000 1.000000
1.000000 1.000000 1.000000
