818989/p_qigc/tapcode-sce.spark.xd.com/src/engine-res/assets/DgPzYRa6DEVGIaapsQl-epbm-f181bb30.cube
# UE Default FilmToneMap LUT
# Generated by gen_ue_tonemap_lut.py
# FilmSlope=0.91 FilmToe=0.53 FilmShoulder=0.23
# FilmBlackClip=0.0 FilmWhiteClip=0.035
# PreDesat=0.96 PostDesat=0.93
# Log encoding: LinearRange=14.0 LinearGrey=0.18
TITLE "UE Default FilmToneMap"
LUT_3D_SIZE 32
DOMAIN_MIN 0.0 0.0 0.0
DOMAIN_MAX 1.0 1.0 1.0
0.000000 0.000000 0.000000
0.000031 0.000001 0.000001
0.000134 0.000003 0.000003
0.000355 0.000007 0.000007
0.000786 0.000016 0.000016
0.001579 0.000033 0.000033
0.002995 0.000062 0.000062
0.005475 0.000113 0.000113
0.009754 0.000201 0.000201
0.017041 0.000352 0.000352
0.029267 0.000604 0.000604
0.049394 0.001020 0.001020
0.081624 0.001688 0.001688
0.131146 0.002717 0.002717
0.202719 0.004213 0.004213
0.296138 0.006188 0.006188
0.406444 0.008572 0.008572
0.512263 0.010984 0.010984
0.606406 0.013361 0.013361
0.686900 0.015799 0.015799
0.753576 0.018527 0.018527
0.807393 0.021951 0.021951
0.849968 0.026748 0.026748
0.883180 0.034012 0.034012
0.908915 0.045483 0.045483
0.928921 0.063840 0.063840
0.944763 0.092966 0.092966
0.957813 0.137908 0.137908
0.969219 0.203917 0.203917
0.979773 0.293129 0.293129
0.989843 0.402632 0.402632
0.998881 0.514269 0.514269
0.000002 0.000033 0.000002
0.000034 0.000034 0.000002
0.000138 0.000037 0.000005
0.000361 0.000043 0.000009
0.000793 0.000053 0.000018
0.001588 0.000072 0.000035
0.003006 0.000103 0.000064
0.005489 0.000158 0.000116
0.009771 0.000250 0.000205
0.017061 0.000406 0.000355
0.029292 0.000666 0.000609
0.049424 0.001091 0.001025
0.081659 0.001770 0.001694
0.131184 0.002813 0.002724
0.202758 0.004328 0.004221
0.296176 0.006326 0.006199
0.406476 0.008739 0.008585
0.512289 0.011187 0.010999
0.606428 0.013607 0.013379
0.686921 0.016101 0.015821
0.753598 0.018897 0.018555
0.807417 0.022404 0.021985
0.849996 0.027301 0.026789
0.883213 0.034685 0.034062
0.908954 0.046294 0.045543
0.928968 0.064802 0.063911
0.944817 0.094079 0.093049
0.957872 0.139143 0.138000
0.969281 0.205204 0.204013
0.979830 0.294316 0.293217
0.989892 0.403649 0.402708
0.998914 0.514962 0.514320
0.000007 0.000141 0.000007
0.000042 0.000143 0.000008
0.000147 0.000147 0.000010
0.000372 0.000153 0.000015
0.000806 0.000165 0.000024
0.001603 0.000185 0.000041
0.003024 0.000219 0.000071
0.005510 0.000277 0.000123
0.009797 0.000373 0.000212
0.017093 0.000535 0.000363
0.029329 0.000802 0.000617
0.049467 0.001237 0.001035
0.081708 0.001929 0.001705
0.131238 0.002990 0.002736
0.202814 0.004526 0.004236
0.296229 0.006553 0.006215
0.406521 0.009002 0.008604
0.512326 0.011496 0.011022
0.606460 0.013974 0.013405
0.686950 0.016540 0.015853
0.753628 0.019427 0.018593
0.807451 0.023045 0.022032
0.850035 0.028077 0.026846
0.883259 0.035621 0.034131
0.909009 0.047417 0.045626
0.929032 0.066129 0.064010
0.944891 0.095608 0.093162
0.957954 0.140835 0.138126
0.969366 0.206964 0.204143
0.979909 0.295938 0.293338
0.989959 0.405034 0.402811
0.998960 0.515907 0.514391
0.000019 0.000376 0.000019
0.000056 0.000379 0.000020
0.000163 0.000383 0.000022
0.000391 0.000391 0.000027
0.000828 0.000404 0.000037
0.001628 0.000426 0.000054
0.003053 0.000462 0.000084
0.005544 0.000523 0.000136
0.009837 0.000625 0.000226
0.017139 0.000793 0.000378
0.029383 0.001069 0.000633
0.049530 0.001516 0.001052
0.081779 0.002223 0.001723
0.131315 0.003305 0.002757
0.202895 0.004868 0.004258
0.296306 0.006930 0.006241
0.406587 0.009424 0.008633
0.512379 0.011976 0.011055
0.606506 0.014529 0.013444
0.686993 0.017190 0.015899
0.753673 0.020195 0.018648
0.807500 0.023961 0.022098
0.850090 0.029173 0.026926
0.883324 0.036933 0.034227
0.909085 0.048978 0.045741
0.929121 0.067962 0.064145
0.944993 0.097711 0.093318
0.958067 0.143155 0.138298
0.969483 0.209371 0.204322
0.980016 0.298154 0.293503
0.990051 0.406920 0.402952
0.999022 0.517194 0.514487
0.000042 0.000832 0.000042
0.000082 0.000835 0.000043
0.000192 0.000840 0.000046
0.000423 0.000849 0.000051
0.000864 0.000864 0.000061
0.001669 0.000888 0.000078
0.003100 0.000928 0.000109
0.005597 0.000993 0.000162
0.009898 0.001100 0.000252
0.017209 0.001276 0.000405
0.029464 0.001562 0.000661
0.049622 0.002023 0.001082
0.081883 0.002749 0.001755
0.131427 0.003855 0.002791
0.203010 0.005451 0.004295
0.296415 0.007556 0.006281
0.406681 0.010108 0.008678
0.512456 0.012733 0.011105
0.606573 0.015383 0.013502
0.687057 0.018166 0.015966
0.753737 0.021326 0.018727
0.807569 0.025286 0.022192
0.850169 0.030735 0.027038
0.883415 0.038781 0.034361
0.909192 0.051158 0.045900
0.929245 0.070505 0.064332
0.945134 0.100612 0.093532
0.958221 0.146339 0.138534
0.969642 0.212662 0.204567
0.980162 0.301181 0.293728
0.990175 0.409480 0.403143
0.999107 0.518943 0.514617
0.000085 0.001671 0.000085
0.000129 0.001675 0.000086
0.000243 0.001681 0.000089
0.000478 0.001692 0.000094
0.000924 0.001708 0.000104
0.001735 0.001735 0.000122
0.003173 0.001778 0.000153
0.005680 0.001849 0.000207
0.009991 0.001963 0.000298
0.017315 0.002147 0.000453
0.029585 0.002446 0.000710
0.049758 0.002923 0.001133
0.082034 0.003672 0.001808
0.131590 0.004808 0.002847
0.203177 0.006444 0.004355
0.296574 0.008603 0.006345
0.406818 0.011225 0.008748
0.512571 0.013943 0.011183
0.606673 0.016714 0.013589
0.687150 0.019654 0.016066
0.753831 0.023015 0.018843
0.807671 0.027226 0.022327
0.850282 0.032988 0.027197
0.883545 0.041409 0.034549
0.909341 0.054222 0.046122
0.929417 0.074046 0.064591
0.945328 0.104620 0.093827
0.958433 0.150712 0.138858
0.969860 0.217161 0.204902
0.980362 0.305313 0.294036
0.990343 0.412949 0.403404
0.999222 0.521316 0.514795
0.000160 0.003170 0.000160
0.000210 0.003174 0.000162
0.000329 0.003182 0.000165
0.000570 0.003194 0.000171
0.001023 0.003213 0.000181
0.001843 0.003243 0.000200
0.003291 0.003291 0.000231
0.005810 0.003367 0.000286
0.010136 0.003490 0.000379
0.017477 0.003685 0.000535
0.029766 0.003999 0.000794
0.049961 0.004496 0.001219
0.082257 0.005272 0.001898
0.131829 0.006445 0.002941
0.203421 0.008130 0.004453
0.296807 0.010354 0.006449
0.407021 0.013062 0.008859
0.512742 0.015896 0.011303
0.606823 0.018819 0.013722
0.687292 0.021958 0.016215
0.753973 0.025574 0.019012
0.807821 0.030110 0.022523
0.850447 0.036273 0.027424
0.883731 0.045181 0.034815
0.909553 0.058560 0.046433
0.929658 0.079001 0.064950
0.945598 0.110176 0.094234
0.958724 0.156726 0.139303
0.970158 0.223309 0.205360
0.980635 0.310953 0.294457
0.990569 0.417630 0.403757
0.999377 0.524525 0.515037
0.000293 0.005794 0.000293
0.000349 0.005800 0.000295
0.000476 0.005809 0.000298
0.000725 0.005824 0.000305
0.001188 0.005846 0.000316
0.002019 0.005880 0.000335
0.003481 0.005933 0.000367
0.006016 0.006016 0.000423
0.010362 0.006148 0.000517
0.017726 0.006357 0.000675
0.030042 0.006688 0.000937
0.050265 0.007210 0.001366
0.082589 0.008019 0.002048
0.132182 0.009235 0.003096
0.203781 0.010980 0.004615
0.297151 0.013283 0.006618
0.407324 0.016098 0.009037
0.513000 0.019074 0.011493
0.607052 0.022185 0.013928
0.687507 0.025572 0.016442
0.754188 0.029508 0.019266
0.808045 0.034452 0.022810
0.850690 0.041126 0.027753
0.884000 0.050653 0.035194
0.909855 0.064752 0.046870
0.929996 0.085975 0.065451
0.945972 0.117901 0.094797
0.959125 0.165003 0.139913
0.970564 0.231702 0.205985
0.981008 0.318646 0.295031
0.990873 0.423918 0.404234
0.999586 0.528849 0.515364
0.000522 0.010322 0.000522
0.000587 0.010329 0.000524
0.000723 0.010340 0.000528
0.000983 0.010357 0.000535
0.001458 0.010382 0.000547
0.002305 0.010421 0.000567
0.003786 0.010481 0.000601
0.006343 0.010573 0.000658
0.010716 0.010716 0.000754
0.018112 0.010941 0.000914
0.030464 0.011294 0.001180
0.050726 0.011845 0.001612
0.083087 0.012693 0.002300
0.132709 0.013962 0.003354
0.204316 0.015778 0.004880
0.297665 0.018177 0.006893
0.407780 0.021120 0.009323
0.513394 0.024267 0.011795
0.607405 0.027607 0.014250
0.687840 0.031296 0.016790
0.754517 0.035626 0.019649
0.808384 0.041074 0.023236
0.851052 0.048380 0.028234
0.884394 0.058674 0.035739
0.910290 0.073663 0.047491
0.930476 0.095846 0.066153
0.946495 0.128675 0.095578
0.959677 0.176402 0.140752
0.971118 0.243139 0.206837
0.981515 0.329118 0.295814
0.991280 0.432307 0.404876
0.999867 0.534642 0.515806
0.000913 0.018028 0.000913
0.000988 0.018037 0.000915
0.001136 0.018050 0.000919
0.001411 0.018070 0.000927
0.001904 0.018100 0.000939
0.002771 0.018144 0.000961
0.004277 0.018211 0.000996
0.006865 0.018313 0.001055
0.011275 0.018470 0.001154
0.018714 0.018714 0.001317
0.031115 0.019092 0.001587
0.051430 0.019677 0.002024
0.083842 0.020571 0.002719
0.133501 0.021903 0.003780
0.205120 0.023803 0.005317
0.298437 0.026314 0.007341
0.408472 0.029407 0.009786
0.513999 0.032757 0.012276
0.607953 0.036368 0.014757
0.688357 0.040416 0.017331
0.755026 0.045215 0.020233
0.808904 0.051265 0.023876
0.851596 0.059327 0.028941
0.884976 0.070538 0.036529
0.910919 0.086583 0.048375
0.931158 0.109886 0.067139
0.947224 0.143733 0.096661
0.960437 0.192089 0.141904
0.971870 0.258677 0.207999
0.982202 0.343309 0.296878
0.991817 0.443399 0.405736
1.000000 0.542350 0.516399
0.001568 0.030951 0.001568
0.001657 0.030962 0.001571
0.001821 0.030978 0.001576
0.002115 0.031001 0.001584
0.002631 0.031035 0.001598
0.003526 0.031086 0.001620
0.005067 0.031161 0.001657
0.007696 0.031275 0.001719
0.012155 0.031448 0.001821
0.019653 0.031713 0.001988
0.032120 0.032120 0.002263
0.052507 0.032744 0.002707
0.084987 0.033691 0.003409
0.134697 0.035094 0.004481
0.206330 0.037088 0.006029
0.299603 0.039726 0.008068
0.409526 0.042990 0.010530
0.514933 0.046569 0.013044
0.608805 0.050489 0.015557
0.689163 0.054944 0.018173
0.755816 0.060277 0.021129
0.809701 0.067012 0.024840
0.852420 0.075930 0.029989
0.885841 0.088173 0.037678
0.911835 0.105392 0.049641
0.932129 0.129904 0.068528
0.948245 0.164778 0.098165
0.961480 0.213615 0.143483
0.972871 0.279356 0.209559
0.983123 0.362338 0.298315
0.992519 0.457917 0.406880
1.000000 0.552508 0.517191
0.002647 0.052202 0.002647
0.002754 0.052216 0.002651
0.002939 0.052235 0.002657
0.003258 0.052262 0.002666
0.003805 0.052301 0.002681
0.004738 0.052359 0.002705
0.006324 0.052443 0.002745
0.009009 0.052570 0.002809
0.013535 0.052760 0.002915
0.021112 0.053048 0.003087
0.033669 0.053486 0.003368
0.054152 0.054152 0.003820
0.086724 0.055155 0.004532
0.136502 0.056633 0.005616
0.208152 0.058728 0.007179
0.301363 0.061501 0.009235
0.411131 0.064945 0.011719
0.516370 0.068767 0.014261
0.610125 0.073012 0.016812
0.690415 0.077898 0.019479
0.757038 0.083793 0.022500
0.810922 0.091245 0.026292
0.853662 0.101052 0.031543
0.887122 0.114347 0.039353
0.913166 0.132726 0.051452
0.933511 0.158364 0.070483
0.949663 0.194051 0.100246
0.962900 0.242949 0.145639
0.974189 0.306567 0.211642
0.984333 0.387329 0.300230
0.993431 0.476738 0.408393
1.000000 0.565729 0.518242
0.004379 0.086179 0.004379
0.004507 0.086194 0.004383
0.004719 0.086216 0.004390
0.005071 0.086247 0.004401
0.005658 0.086291 0.004417
0.006642 0.086355 0.004444
0.008289 0.086449 0.004486
0.011050 0.086588 0.004554
0.015666 0.086795 0.004664
0.023349 0.087105 0.004843
0.036028 0.087573 0.005131
0.056640 0.088279 0.005593
0.089336 0.089336 0.006317
0.139204 0.090885 0.007416
0.210874 0.093074 0.008995
0.303997 0.095972 0.011072
0.413546 0.099583 0.013579
0.518551 0.103629 0.016154
0.612140 0.108174 0.018749
0.692328 0.113456 0.021475
0.758897 0.119861 0.024572
0.812764 0.127956 0.028460
0.855513 0.138539 0.033827
0.888999 0.152716 0.041774
0.915077 0.171996 0.054026
0.935452 0.198362 0.073212
0.951612 0.234266 0.103105
0.964789 0.281951 0.148534
0.975959 0.343125 0.214458
0.985869 0.419049 0.302730
0.994588 0.500635 0.410372
1.000000 0.582661 0.519623
0.007048 0.138249 0.007048
0.007203 0.138266 0.007053
0.007448 0.138290 0.007061
0.007843 0.138324 0.007073
0.008484 0.138372 0.007092
0.009534 0.138442 0.007121
0.011264 0.138543 0.007166
0.014125 0.138692 0.007239
0.018862 0.138912 0.007355
0.026688 0.139239 0.007540
0.039530 0.139730 0.007838
0.060316 0.140466 0.008311
0.093176 0.141562 0.009049
0.143162 0.143162 0.010164
0.214855 0.145418 0.011763
0.307852 0.148402 0.013862
0.417095 0.152126 0.016396
0.521775 0.156323 0.019006
0.615128 0.161067 0.021650
0.695162 0.166609 0.024441
0.761640 0.173340 0.027622
0.815460 0.181822 0.031615
0.858190 0.192834 0.037109
0.891673 0.207420 0.045203
0.917751 0.226956 0.057616
0.938113 0.253186 0.076957
0.954195 0.287553 0.106936
0.967235 0.332433 0.152358
0.978253 0.390483 0.218182
0.987740 0.457690 0.305919
0.996017 0.530135 0.412921
1.000000 0.603901 0.521416
0.010930 0.213223 0.010930
0.011119 0.213240 0.010937
0.011408 0.213266 0.010946
0.011858 0.213301 0.010960
0.012568 0.213351 0.010981
0.013705 0.213424 0.011013
0.015543 0.213528 0.011063
0.018538 0.213681 0.011140
0.023436 0.213905 0.011263
0.031454 0.214239 0.011457
0.044513 0.214737 0.011766
0.065532 0.215482 0.012252
0.098610 0.216588 0.013006
0.148750 0.218199 0.014139
0.220465 0.220465 0.015759
0.313285 0.223457 0.017881
0.422098 0.227185 0.020442
0.526326 0.231387 0.023088
0.619344 0.236135 0.025785
0.699152 0.241671 0.028645
0.765482 0.248370 0.031916
0.819208 0.256763 0.036019
0.861871 0.267492 0.041641
0.895284 0.281271 0.049867
0.921276 0.299383 0.062410
0.941531 0.323605 0.081872
0.957507 0.355862 0.111964
0.970374 0.397201 0.157386
0.980981 0.446779 0.222866
0.989962 0.503528 0.309940
0.997731 0.565496 0.416159
1.000000 0.629867 0.523715
0.016074 0.310539 0.016074
0.016305 0.310556 0.016082
0.016648 0.310581 0.016093
0.017168 0.310615 0.016109
0.017968 0.310664 0.016133
0.019219 0.310734 0.016169
0.021199 0.310835 0.016224
0.024370 0.310983 0.016307
0.029483 0.311201 0.016438
0.037754 0.311524 0.016642
0.051103 0.312007 0.016963
0.072430 0.312729 0.017464
0.105795 0.313801 0.018236
0.156133 0.315361 0.019390
0.227867 0.317552 0.021032
0.320437 0.320437 0.023178
0.428648 0.324012 0.025764
0.532252 0.328006 0.028447
0.624802 0.332477 0.031197
0.704283 0.337635 0.034130
0.770390 0.343811 0.037495
0.823958 0.351467 0.041714
0.866501 0.361216 0.047478
0.899815 0.373818 0.055876
0.925697 0.390156 0.068598
0.945784 0.411147 0.088194
0.961473 0.437601 0.118292
0.973917 0.470264 0.163520
0.984035 0.509743 0.228594
0.992482 0.555488 0.314918
0.999716 0.606423 0.420217
1.000000 0.660628 0.526624
0.022326 0.424393 0.022326
0.022608 0.424409 0.022335
0.023019 0.424430 0.022348
0.023627 0.424461 0.022367
0.024542 0.424504 0.022394
0.025939 0.424566 0.022435
0.028105 0.424656 0.022495
0.031506 0.424788 0.022586
0.036900 0.424984 0.022726
0.045507 0.425276 0.022942
0.059238 0.425714 0.023278
0.080970 0.426373 0.023797
0.114710 0.427355 0.024589
0.165300 0.428786 0.025765
0.237042 0.430794 0.027430
0.329261 0.433420 0.029599
0.436631 0.436631 0.032209
0.539380 0.440131 0.034926
0.631281 0.443931 0.037729
0.710300 0.448170 0.040736
0.776076 0.453083 0.044195
0.829392 0.459001 0.048531
0.871721 0.466367 0.054429
0.904821 0.475743 0.062972
0.930462 0.487751 0.075836
0.950259 0.503121 0.095545
0.965604 0.522622 0.125682
0.977641 0.546969 0.170800
0.987284 0.576668 0.235499
0.995217 0.611816 0.321011
1.000000 0.651918 0.425238
1.000000 0.695746 0.530252
0.028840 0.532870 0.028840
0.029185 0.532883 0.028851
0.029680 0.532902 0.028866
0.030399 0.532928 0.028888
0.031459 0.532966 0.028920
0.033043 0.533021 0.028966
0.035447 0.533100 0.029033
0.039147 0.533217 0.029134
0.044909 0.533391 0.029286
0.053955 0.533653 0.029518
0.068186 0.534047 0.029873
0.090446 0.534643 0.030415
0.124671 0.535534 0.031234
0.175579 0.536834 0.032439
0.247309 0.538654 0.034134
0.339045 0.541014 0.036335
0.445252 0.543853 0.038975
0.546857 0.546857 0.041741
0.637893 0.549996 0.044620
0.716302 0.553352 0.047735
0.781655 0.557080 0.051337
0.834668 0.561410 0.055854
0.876757 0.566650 0.061974
0.909642 0.573190 0.070774
0.935061 0.581509 0.083918
0.954607 0.592166 0.103901
0.969654 0.605782 0.134241
0.981341 0.622988 0.179385
0.990576 0.644329 0.243787
0.998053 0.670119 0.328432
1.000000 0.700286 0.431392
1.000000 0.734185 0.534726
0.035641 0.629128 0.035641
0.036063 0.629141 0.035654
0.036663 0.629159 0.035672
0.037520 0.629184 0.035699
0.038761 0.629219 0.035736
0.040580 0.629270 0.035789
0.043287 0.629344 0.035866
0.047370 0.629453 0.035980
0.053604 0.629616 0.036148
0.063214 0.629859 0.036401
0.078089 0.630227 0.036781
0.101028 0.630783 0.037354
0.135868 0.631612 0.038208
0.187161 0.632818 0.039452
0.258834 0.634499 0.041188
0.349901 0.636658 0.043432
0.454504 0.639209 0.046116
0.554584 0.641833 0.048953
0.644475 0.644475 0.051941
0.722088 0.647173 0.055213
0.786902 0.650023 0.059027
0.839550 0.653178 0.063818
0.881379 0.656852 0.070277
0.914057 0.661318 0.079483
0.939284 0.666917 0.093086
0.958627 0.674056 0.113540
0.973441 0.683204 0.144282
0.984851 0.694873 0.189613
0.993759 0.709560 0.253792
1.000000 0.727656 0.337493
1.000000 0.749336 0.438902
1.000000 0.774377 0.540202
0.043232 0.711302 0.043232
0.043750 0.711315 0.043249
0.044475 0.711333 0.043271
0.045501 0.711358 0.043302
0.046965 0.711394 0.043346
0.049077 0.711445 0.043409
0.052161 0.711520 0.043499
0.056722 0.711628 0.043628
0.063550 0.711788 0.043817
0.073871 0.712026 0.044095
0.089555 0.712384 0.044508
0.113339 0.712920 0.045120
0.148928 0.713714 0.046019
0.200657 0.714862 0.047312
0.272174 0.716447 0.049101
0.362298 0.718460 0.051400
0.464686 0.720794 0.054139
0.562739 0.723142 0.057068
0.651114 0.725435 0.060203
0.727677 0.727677 0.063686
0.791793 0.729925 0.067787
0.843984 0.732277 0.072951
0.885511 0.734877 0.079879
0.917973 0.737915 0.089653
0.943027 0.741626 0.103905
0.962205 0.746295 0.125039
0.976842 0.752260 0.156384
0.988045 0.759908 0.202052
0.996706 0.769643 0.266041
1.000000 0.781838 0.348671
1.000000 0.796763 0.448076
1.000000 0.814444 0.546887
0.052587 0.779301 0.052587
0.053217 0.779315 0.052607
0.054094 0.779335 0.052634
0.055322 0.779362 0.052672
0.057055 0.779401 0.052724
0.059520 0.779456 0.052798
0.063061 0.779534 0.052903
0.068206 0.779647 0.053052
0.075757 0.779813 0.053266
0.086945 0.780056 0.053576
0.103610 0.780417 0.054028
0.128402 0.780949 0.054687
0.164853 0.781729 0.055641
0.217014 0.782842 0.056993
0.287940 0.784356 0.058838
0.376933 0.786266 0.061207
0.476300 0.788428 0.064010
0.571657 0.790572 0.067052
0.658030 0.792618 0.070368
0.733206 0.794554 0.074116
0.796403 0.796403 0.078579
0.848006 0.798230 0.084218
0.889159 0.800130 0.091748
0.921378 0.802233 0.102251
0.946259 0.804700 0.117341
0.965296 0.807727 0.139353
0.979796 0.811550 0.171475
0.990848 0.816444 0.217574
0.999330 0.822714 0.281320
1.000000 0.830663 0.362654
1.000000 0.840560 0.459338
1.000000 0.852540 0.555071
0.065332 0.834176 0.065332
0.066092 0.834192 0.065355
0.067144 0.834215 0.065388
0.068608 0.834246 0.065433
0.070653 0.834289 0.065495
0.073530 0.834350 0.065582
0.077607 0.834436 0.065704
0.083433 0.834559 0.065876
0.091830 0.834736 0.066120
0.104023 0.834992 0.066468
0.121812 0.835365 0.066966
0.147730 0.835906 0.067680
0.185080 0.836684 0.068696
0.237555 0.837777 0.070114
0.307220 0.839229 0.072014
0.394694 0.841058 0.074462
0.489998 0.843071 0.077331
0.581810 0.845050 0.080499
0.665561 0.846918 0.084027
0.738909 0.848644 0.088087
0.800896 0.850235 0.092980
0.851728 0.851728 0.099187
0.892401 0.853188 0.107436
0.924323 0.854704 0.118810
0.949013 0.856387 0.134893
0.967915 0.858372 0.157931
0.982302 0.860820 0.190927
0.993241 0.863922 0.237438
1.000000 0.867893 0.300632
1.000000 0.872957 0.380362
1.000000 0.879333 0.473249
1.000000 0.887172 0.565148
0.084006 0.877640 0.084006
0.084910 0.877658 0.084034
0.086156 0.877684 0.084073
0.087879 0.877720 0.084126
0.090270 0.877769 0.084200
0.093601 0.877838 0.084301
0.098267 0.877934 0.084443
0.104840 0.878070 0.084640
0.114156 0.878262 0.084916
0.127430 0.878535 0.085305
0.146394 0.878925 0.085853
0.173428 0.879480 0.086625
0.211544 0.880262 0.087705
0.263996 0.881338 0.089189
0.331775 0.882731 0.091141
0.416546 0.884476 0.093656
0.506508 0.886342 0.096582
0.593790 0.888175 0.099881
0.674150 0.889899 0.103635
0.745111 0.891475 0.108035
0.805504 0.892894 0.113402
0.855319 0.894176 0.120234
0.895365 0.895365 0.129273
0.926907 0.896524 0.141596
0.951365 0.897730 0.158739
0.970119 0.899078 0.182831
0.984401 0.900679 0.216634
0.995249 0.902662 0.263325
1.000000 0.905172 0.324874
1.000000 0.908370 0.402857
1.000000 0.912402 0.490536
1.000000 0.917401 0.577623
0.112320 0.911663 0.112320
0.113369 0.911684 0.112353
0.114810 0.911713 0.112398
0.116794 0.911754 0.112459
0.119530 0.911810 0.112544
0.123313 0.911887 0.112660
0.128561 0.911994 0.112821
0.135865 0.912143 0.113043
0.146064 0.912350 0.113351
0.160343 0.912641 0.113780
0.180340 0.913048 0.114375
0.208229 0.913615 0.115201
0.246667 0.914397 0.116336
0.298034 0.915443 0.117865
0.363659 0.916780 0.119865
0.443365 0.918406 0.122401
0.526650 0.920114 0.125359
0.608265 0.921802 0.128766
0.684315 0.923396 0.132728
0.752200 0.924851 0.137454
0.810518 0.926148 0.143281
0.858997 0.927293 0.150721
0.898216 0.928315 0.160519
0.929259 0.929259 0.173732
0.953421 0.930182 0.191824
0.971997 0.931152 0.216762
0.986164 0.932245 0.251015
0.996928 0.933551 0.297307
1.000000 0.935163 0.356411
1.000000 0.937196 0.431079
1.000000 0.939731 0.512044
1.000000 0.942873 0.593083
0.155149 0.938202 0.155149
0.156319 0.938226 0.155186
0.157922 0.938258 0.155235
0.160121 0.938303 0.155304
0.163140 0.938364 0.155397
0.167289 0.938448 0.155526
0.172998 0.938564 0.155702
0.180863 0.938723 0.155945
0.191707 0.938942 0.156278
0.206653 0.939245 0.156736
0.227205 0.939661 0.157365
0.255281 0.940230 0.158224
0.292957 0.940993 0.159385
0.341447 0.941975 0.160912
0.404234 0.943248 0.162931
0.475874 0.944703 0.165407
0.551197 0.946238 0.168342
0.625923 0.947770 0.171793
0.696625 0.949232 0.175888
0.760620 0.950575 0.180848
0.816271 0.951772 0.187017
0.863012 0.952820 0.194909
0.901145 0.953734 0.205254
0.931531 0.954548 0.219060
0.955303 0.955303 0.237685
0.973649 0.956050 0.262887
0.987676 0.956844 0.296788
0.998341 0.957742 0.340425
1.000000 0.958820 0.397486
1.000000 0.960135 0.465501
1.000000 0.961741 0.538363
1.000000 0.963713 0.612142
0.217720 0.959028 0.217720
0.218949 0.959053 0.217759
0.220630 0.959087 0.217811
0.222929 0.959134 0.217883
0.226073 0.959197 0.217980
0.230374 0.959284 0.218114
0.236254 0.959403 0.218297
0.244288 0.959565 0.218547
0.255247 0.959786 0.218888
0.270157 0.960087 0.219354
0.290261 0.960493 0.219984
0.316498 0.961023 0.220821
0.351608 0.961733 0.221951
0.397607 0.962662 0.223455
0.452933 0.963781 0.225360
0.514829 0.965035 0.227688
0.580731 0.966374 0.230496
0.647372 0.967733 0.233866
0.711634 0.969052 0.237934
0.770833 0.970280 0.242921
0.823126 0.971383 0.249165
0.867640 0.972350 0.257154
0.904359 0.973187 0.267574
0.933881 0.973915 0.281347
0.957138 0.974567 0.299669
0.975177 0.975177 0.323413
0.989018 0.975789 0.354842
0.999570 0.976451 0.396445
1.000000 0.977201 0.447896
1.000000 0.978073 0.506419
1.000000 0.979112 0.569960
1.000000 0.980363 0.635323
0.302904 0.975600 0.302904
0.304049 0.975623 0.302939
0.305612 0.975654 0.302988
0.307746 0.975697 0.303054
0.310657 0.975756 0.303145
0.314626 0.975836 0.303269
0.320038 0.975945 0.303438
0.327418 0.976094 0.303669
0.337473 0.976297 0.303984
0.351139 0.976572 0.304413
0.369564 0.976944 0.304995
0.393952 0.977436 0.305773
0.425161 0.978065 0.306795
0.463319 0.978836 0.308101
0.508503 0.979749 0.309747
0.559816 0.980787 0.311785
0.615436 0.981914 0.314279
0.672998 0.983084 0.317315
0.729794 0.984245 0.321021
0.783266 0.985345 0.325596
0.831440 0.986350 0.331341
0.873156 0.987238 0.338695
0.908066 0.988007 0.348278
0.936462 0.988671 0.360930
0.959040 0.989252 0.377713
0.976677 0.989777 0.399812
0.990278 0.990278 0.428229
1.000000 0.990783 0.463355
1.000000 0.991321 0.505260
1.000000 0.991921 0.553637
1.000000 0.992612 0.606884
1.000000 0.993422 0.662913
0.407888 0.988977 0.407888
0.408892 0.988997 0.407919
0.410262 0.989025 0.407961
0.412126 0.989062 0.408020
0.414660 0.989113 0.408099
0.418094 0.989182 0.408207
0.422733 0.989276 0.408353
0.428970 0.989402 0.408551
0.437296 0.989569 0.408817
0.448309 0.989791 0.409174
0.462706 0.990082 0.409649
0.481295 0.990456 0.410275
