818989/p_qigc/tapcode-sce.spark.xd.com/src/engine-res/assets/DgPzYRa6DEVGIaapsQl-epbm-f181bb30.cube
# UE Default FilmToneMap LUT
# Generated by gen_ue_tonemap_lut.py
# FilmSlope=0.91 FilmToe=0.53 FilmShoulder=0.23
# FilmBlackClip=0.0 FilmWhiteClip=0.035
# PreDesat=0.96 PostDesat=0.93
# Log encoding: LinearRange=14.0 LinearGrey=0.18
TITLE "UE Default FilmToneMap"
LUT_3D_SIZE 5
DOMAIN_MIN 0.000000 0.000000 0.000000
DOMAIN_MAX 0.903226 0.903226 0.903226
0.000000 0.000000 0.000000
0.005475 0.000113 0.000113
0.202719 0.004213 0.004213
0.807393 0.021951 0.021951
0.969219 0.203917 0.203917
0.000293 0.005794 0.000293
0.006016 0.006016 0.000423
0.203781 0.010980 0.004615
0.808045 0.034452 0.022810
0.970564 0.231702 0.205985
0.010930 0.213223 0.010930
0.018538 0.213681 0.011140
0.220465 0.220465 0.015759
0.819208 0.256763 0.036019
0.980981 0.446779 0.222866
0.065332 0.834176 0.065332
0.083433 0.834559 0.065876
0.307220 0.839229 0.072014
0.851728 0.851728 0.099187
1.000000 0.867893 0.300632
0.517399 0.999686 0.517399
0.531939 0.999979 0.517856
0.632556 1.000000 0.521349
0.887830 1.000000 0.539270
1.000000 1.000000 0.632436
0.000022 0.000022 0.005306
0.005517 0.000136 0.005517
0.202803 0.004244 0.010419
0.807445 0.022019 0.033535
0.969326 0.204081 0.229802
0.000318 0.005837 0.005837
0.006060 0.006060 0.006060
0.203866 0.011029 0.011029
0.808097 0.034532 0.034532
0.970671 0.231866 0.231866
0.010971 0.213313 0.018309
0.018594 0.213771 0.018594
0.220559 0.220559 0.023867
0.819266 0.256874 0.048928
0.981087 0.446924 0.248710
0.065439 0.834252 0.082966
0.083548 0.834635 0.083548
0.307347 0.839306 0.090010
0.851814 0.851814 0.119713
1.000000 0.867994 0.324792
0.517489 0.999743 0.531580
0.532028 1.000000 0.532028
0.632633 1.000000 0.535438
0.887886 1.000000 0.552654
1.000000 1.000000 0.641336
0.000803 0.000803 0.197110
0.006473 0.000927 0.197517
0.204108 0.005079 0.204108
0.808317 0.023039 0.239782
0.970164 0.205434 0.431423
0.001122 0.006802 0.198124
0.007030 0.007030 0.198540
0.205181 0.012025 0.205181
0.808976 0.035659 0.241108
0.971508 0.233216 0.433267
0.011866 0.214643 0.214643
0.019625 0.215105 0.215105
0.221904 0.221904 0.221904
0.820168 0.258249 0.258249
0.981908 0.448095 0.448095
0.066643 0.835170 0.301154
0.084819 0.835555 0.301791
0.308714 0.840229 0.308714
0.852739 0.852739 0.341223
1.000000 0.868749 0.505481
0.518181 1.000000 0.629909
0.532703 1.000000 0.630300
0.633203 1.000000 0.633203
0.888285 1.000000 0.646071
1.000000 1.000000 0.706159
0.003573 0.003573 0.792751
0.010623 0.003751 0.792913
0.211208 0.008160 0.797128
0.811002 0.027140 0.811002
0.972027 0.211904 0.835184
0.004022 0.011009 0.793159
0.011275 0.011275 0.793329
0.212341 0.016422 0.797588
0.811702 0.040672 0.811702
0.973368 0.239656 0.836563
0.015323 0.221846 0.803780
0.024233 0.222329 0.803992
0.229167 0.229167 0.808405
0.822966 0.265259 0.822966
0.983677 0.452977 0.847218
0.071783 0.837688 0.837688
0.090536 0.838083 0.838083
0.315207 0.842764 0.842764
0.855106 0.855106 0.855106
1.000000 0.870471 0.870471
0.521824 1.000000 0.880945
0.536197 1.000000 0.881247
0.635788 1.000000 0.883360
0.889466 1.000000 0.889466
1.000000 1.000000 0.900363
0.018844 0.018844 0.944966
0.034291 0.019308 0.945283
0.253746 0.025117 0.949759
0.815348 0.050884 0.961746
0.974705 0.255579 0.974705
0.019997 0.035046 0.945756
0.035560 0.035560 0.946078
0.255245 0.041794 0.950578
0.816358 0.070848 0.962712
0.976003 0.282445 0.976003
0.034572 0.264936 0.956930
0.051113 0.265554 0.957276
0.272559 0.272559 0.961846
0.828134 0.306350 0.974098
0.985617 0.481397 0.985617
0.103536 0.841534 0.985619
0.126344 0.842011 0.986078
0.354257 0.846751 0.990665
0.858324 0.858324 1.000000
1.000000 0.873242 1.000000
0.544705 1.000000 1.000000
0.557847 1.000000 1.000000
0.649850 1.000000 1.000000
0.891728 1.000000 1.000000
1.000000 1.000000 1.000000
